icons/lines/binance-coin--bnb-.svg

<svg xmlns="http://www.w3.org/2000/svg" width="24" height="24" viewBox="0 0 24 24" fill="none" stroke="currentColor" stroke-width="2" stroke-linecap="round" stroke-linejoin="round" >
  <path d="M12 2L6 8L8 10L12 6L16 10L18 8L12 2Z" stroke-miterlimit="10"/>
  <path d="M12 22L6 16L8 14L12 18L16 14L18 16L12 22Z" stroke-miterlimit="10"/>
  <path d="M19.7852 9.702L17.5225 11.9647L19.7852 14.2274L22.0479 11.9647L19.7852 9.702Z" stroke-miterlimit="10"/>
  <path d="M4.28518 9.70188L2.02246 11.9646L4.28518 14.2273L6.5479 11.9646L4.28518 9.70188Z" stroke-miterlimit="10"/>
  <path d="M11.929 9.52515L9.4541 12L11.929 14.4748L14.4038 12L11.929 9.52515Z" stroke-miterlimit="10"/>
  </svg>

<svg xmlns="http://www.w3.org/2000/svg" width="24" height="24" viewBox="0 0 24 24" fill="none" stroke="currentColor" stroke-width="2" stroke-linecap="round" stroke-linejoin="round">
  <path d="M11.929 9.525 9.454 12l2.475 2.475L14.404 12z" />
  <path d="M12 2 6 8l2 2 4-4 4 4 2-2z" />
  <path d="m12 22-6-6 2-2 4 4 4-4 2 2z" />
  <path d="m19.785 9.702-2.262 2.263 2.262 2.262 2.263-2.262z" />
  <path d="m4.285 9.702-2.262 2.263 2.262 2.262 2.263-2.262z" />
</svg>
